X: 42
T: Niewinność, Panie, moję
C: Mikołaj Gomółka
%%abc-version 2.0
%%abcx-abcm2ps-target-version 5.9.1 (29 Sep 2008)
%%abc-creator hum2abc beta
%%abcx-conversion-date 2021/10/04 07:59:10
%%abc-edited-by Marta Lawrence
%%abcx-initial-encoding-date 2020-02-08
%%humdrum-veritas 865773130
%%humdrum-veritas-data 2854250173
%%linebreak <none>
%%barnumbers 0
L: 1/4
M: C|
N: Derived from pl-wn--sd-xvi-qu-273--043_gomolka-mikolaj--niewinnosc-panie-moje.krn
%%staves [1 2 3 4]
V: 1
V: 2
V: 3 clef=alto
V: 4 clef=bass
K: F
[V:1] G4B4 [|] 
[V:2] D4_E4 [|] 
[V:3] B,4B,3C [|] 
[V:4] G,4_E,4 [|] 
[V:1] B2A4G2 [|] 
[V:2] F2D2^C2D2 [|] 
[V:3] DEF2EDD4 [|] 
[V:4] B,,2D,2A,,2B,,2 [|] 
[V:1] A4A2c2 [|] 
[V:2] =E4^F2AG [|] 
[V:3] ^C2D2E2 [|] 
[V:4] A,,4D,2A,,2 [|] 
[V:1] B2A2G2G4 [|] 
[V:2] =FED=CB,2E2 [|] 
[V:3] DEFED2=CB, [|] 
[V:4] B,,2F,,2G,,2C,2 [|] 
[V:1] F2G2F2 [|] 
[V:2] D2>C2B,2D2 [|] 
[V:3] A,G,A,2G,2D2 [|] 
[V:4] D,4G,,2B,,2 [|] 
[V:1] G2G2F2F2 [|] 
[V:2] _E2E2D2D4 [|] 
[V:3] B,2C2A,2B,4 [|] 
[V:4] =E,2C,2D,2B,,2 [|] 
[V:1] F4F2F4 [|] 
[V:2] C2D2D4 [|] 
[V:3] A,2B,2A,4 [|] 
[V:4] F,4B,,2D,4 [|] 
[V:1] G2B2A2 [|] 
[V:2] D2D2D2 [|] 
[V:3] B,2G,2A,2 [|] 
[V:4] G,,2G,2F,2 [|] 
[V:1] G2G2F2A2 [|] 
[V:2] D2C2D2F2 [|] 
[V:3] B,2G,2A,2D2 [|] 
[V:4] E,2E,2D,2D,2 [|] 
[V:1] A2G2c2c2 [|] 
[V:2] F2=E2G2G2 [|] 
[V:3] C2C2_E2E2 [|] 
[V:4] F,2C,2>D,2=E,F, [|] 
[V:1] B4A2d3 [|] 
[V:2] G4F2B2 [|] 
[V:3] D4D2F3 [|] 
[V:4] G,2G,,2D,2B,,3 [|] 
[V:1] cB2AGAB [|] 
[V:2] B2F2F2F2 [|] 
[V:3] =ED2CB,CD [|] 
[V:4] C,D,E,F,4 [|] 
[V:1] c4B2AG [|] 
[V:2] G2G2>F2E2 [|] 
[V:3] E4D2CB, [|] 
[V:4] C,D,E,F,G,2C,2 [|] 
[V:1] FG2FG32 |]  
[V:2] D4D32 |]  
[V:3] A,G,A,2G,32 |]  
[V:4] D,4G,,32 |]  


